assets/img/valentina_logo.svg

<svg height="86" viewBox="0 0 218 86" width="218" xmlns="http://www.w3.org/2000/svg"><g><path d="m203.145108 17.2269466s-3.749555-3.395403-5.053656 8.2466868c0 0 8.801784-5.659241 5.053656-8.2466868zm-5.053656 8.2466868c4.237077 5.8228151 6.848132 2.7496037 6.848132 2.7496037.813011-3.7190108-6.848132-2.7496037-6.848132-2.7496037zm-4.239217-7.4380215s-2.281997 1.9402303 4.239217 7.4380215c0 0-.815151-9.3789599-4.239217-7.4380215zm-12.062392 11.8049558c-5.869521-4.2040683-2.6082-8.7331606-2.6082-8.7331606 3.75027 5.9849731 12.715512 7.11583 12.715512 7.11583-3.749556 5.1755996-10.107312 1.6173306-10.107312 1.6173306zm-12.633425-14.0121447c-.630993 0-.953628-.4227437-.953628-.9467474 0-.5225876.428276-.9446231.953628-.9446231.528921 0 .953627.4220355.953627.9446231 0 .5240037-.321206.9467474-.953627.9467474zm2.363369-3.7770761s-6.195011.4857657-6.519787 6.3078728c0 0 1.631017-1.7787805 2.119252.1621579 0 0-1.140642 8.4088447 2.119252 12.9372288 0 0 3.751697 5.9538161 11.42997 6.653432-1.128507 1.4615458-3.24419 2.9422105-3.24419 2.9422105l-2.066449.9396663.855856.1479957-2.631042 1.713634 3.603942-1.394275-.648124 1.5387301 1.824455-1.8106455.888673.9345519v-1.7623363c1.466845-1.0572131 2.508983-2.2121458 3.224917-3.1872177 1.303387-.024784 2.703849-.1989798 4.204242-.5714474 0 0 10.105884-3.3961111 11.410698-12.1292716 0 0-11.08378 4.5283841-18.093943-8.4088447 0 0-1.793049-5.659241-8.477722-5.0134418z"/><path d="m143.901306 32.530055c.198247.0828221.569162.1083058 1.110612.0757433.54216-.0325625.972762-.1267107 1.288963-.278905.317622-.1493628.888205-.4629539 1.111322-1.2111836.341071-1.1411035.309806-2.6333158.309806-2.6333158.059688-3.0672465-1.604454-4.9919737-4.777122-4.0469532-.227381.1309579-.439839.3043887-.632402.5153371-.388679.4218968-.573425 1.7774881-.549977 4.0674817.235908 1.2458698.602559 2.1215181 1.096401 2.6269448.493131.5061346.839886.800613 1.042397.8848507zm56.167959 23.3097993c-.208195 7.3442609-1.60019 13.0009346-4.173143 16.9650657-2.575795 3.9648391-4.691144 4.8341165-6.348179 2.6071242-1.657036-2.2255765-1.472289-7.2720571.55495-15.1479363 2.02795-7.8730477 4.448131-12.3397741 7.258412-13.3973477 2.009476-1.363378 2.913313 1.6274174 2.70796 8.9730941zm-135.1897904.5415287c1.2434871-6.0077824 2.5665575-12.4990473 3.9720532-19.4688393 1.4047852-6.9690843 2.5679786-13.2550637 5.9261045-14.9192909 2.7356717-1.3555913 3.7574628 2.52501 2.3072015 7.8256197-1.4495507 5.3006097-5.5182406 14.1554877-12.2053592 26.5625105zm-22.991722 16.423537c-2.9834602 4.8808193-4.6904335 4.8341165-6.3474689 2.6071242-1.6570355-2.2255765-1.4715782-7.2720571.5556611-15.1479363 2.0258182-7.8730477 4.4459994-12.3397741 7.2562804-13.3973477 2.8102809-1.0575736 2.9147338 1.6274174 2.7079597 8.9730941 0 0-1.1889721 12.0842465-4.1724323 16.9650657zm41.9886527-14.2942323c0-8.0117923 2.4699208-14.3154688 7.4126045-18.9046585 2.9580783 6.7326521.4881575 13.0334971-7.4126045 18.9046585zm126.1233547 13.7926535c-2.899102 1.1963182-5.625898-2.4134733-5.272747-9.2862858 0 0 .230222-15.3072094 1.77641-21.3263179.635244-2.4733347-1.141166-4.1984397-4.215066-4.9226015-.682852 1.9749868-1.096401 4.3534655-1.243487 7.136144-2.545241-5.648179-5.962344-5.5441206-10.252019.3135911-3.304834 4.5077835-6.729752 12.3603027-7.299625 22.6514704-3.255804 8.3020233-5.738515 9.7892804-6.174802 6.7553042-.568451-3.9726257 1.844625-19.9126804 1.844625-19.9126804 1.153245-7.651481 1.198011-11.6856924.133586-12.103342-1.806965-2.5865956-7.118431 1.4476158-15.93511 12.103342 0 0 2.079337-13.0882247 2.079337-16.2486906 0-2.7890494-4.729528-1.1665871-4.99598.5762148-.232831 1.5228922-.988618 11.4910253-1.186154 18.5804492-3.498107 12.121039-7.114168 18.4020633-12.305549 17.413862-2.211986-.4218968-2.495501-4.3301054-2.82165-8.0316129-.116533-3.4799409 2.739935-30.6540602 2.739935-30.6540602s-3.479527-.9634255-3.951447.7517692c-.47192 1.7151946-2.174326 13.9799333-3.319755 28.3746847-.942208 3.3404884-2.022976 6.1720107-3.25012 8.4754541-1.507107 2.8407247-3.363811 1.7350152-4.385602-1.1340247-2.718618-7.6394471-.47144-31.974119-.371961-32.5057373 3.969211.0240679 8.013367-.7993356 8.013367-.7993356.560635-1.742802.65514-4.1262359.65514-4.1262359-4.585072.3961751-8.668507.3961751-8.668507.3961751.32757-9.9025413.192899-13.4282676.371961-15.3422832-4.093447-.9925308-4.936178-.6559957-5.135476 1.5694966-.371692 5.8453885-.826014 11.9520064-.963273 13.2200886-.0605.3459822-.429771.552698-1.009734.552698s-4.966843-.7062268-7.855996-1.3107568c0 0-1.594141 3.2980156.804361 3.9931543 1.813346.5255477 4.088356 1.0476633 7.631598 1.6755533l-.579963 8.6460533c-.209616 5.2850363-.001421 9.62576-.001421 14.4280218-3.726909 11.6545457-7.433211 13.8447282-7.713173 9.8204271-.277831-4.0044804 1.697537-18.3213649 1.697537-18.3213649 1.154667-7.651481 1.198722-11.6856924.132876-12.103342-1.805543-2.5865956-7.11701 1.4476158-15.933689 12.103342 0 0 1.743724-9.3185398 1.907864-12.4785187.299148-5.7019779-3.916629-6.9860733-4.947657-3.8190156-.512317 1.5736185-.893179 12.9343937-1.084321 19.9962103-2.805307 8.0273657-3.1527728 10.3739897-9.8000998 15.4572801-3.2224081 2.4641323-4.9711063.527371-5.3263884-8.8477992 8.71197-7.6113995 12.4426709-14.2704318 12.0426233-17.7631145-.5329045-4.1667487-1.078218-6.6088498-1.7290947-7.9722277-.976315-2.0861241-2.689176-2.95081-4.4101622-2.3094702-5.1210353 1.908446-8.8799193 8.3756429-11.0073482 19.1127754l-.5414498 7.2387867c-2.766226 8.6708291-5.0350571 13.3046153-6.8050722 13.8787064-2.0563725.6661156-3.7055917-2.0018862-4.9483683-8.0117923l.0888205-3.7560143c.8874946-3.5344477 2.6255343-7.3244402 5.2148298-11.3721013 2.588585-4.0497848 4.956895-9.056624 7.102088-15.0261809 2.145193-5.9667253 2.9808163-10.6677602 2.5075807-14.1052282-.4732357-3.4353444-2.2716734-5.2659236-5.3931814-5.4881981-3.121508-.2215666-5.6440105 1.68334-7.4779764 5.7593163-1.7124595 3.8048581-2.3640467 5.6340215-3.3730477 9.5563877-1.3081485 5.0839983-2.4571306 10.4766325-2.9296557 16.3180629-.3460447 3.3836691-.4966843 6.7255733-.4789202 10.0299598-1.4104697 7.2062242-3.4092865 11.3536965-6.0021348 12.4240119s-4.3518983-2.0478414-4.9263408-8.9279678c-.3872905-4.638597-.3206774-11.4396191 0-13.9396683s.7666007-6.6509837 1.4778754-8.4327191c.2657509-2.5575725-1.0092828-3.1727207-3.7303317-3.8190156-.6807204 1.9749868-1.1324221 4.2763065-1.4311079 6.489849-2.8321283-4.765452-11.1396243 1.1219873-14.3370515 10.3831888-3.1974271 9.2612015-5.0151171 23.6368288 0 26.0493005 5.0151172 2.4124717 9.0689294.2640395 13.5369564-12.9782824.8882051 5.4251967 2.7989119 10.177199 6.6579854 10.9346312 3.3936541.6632841 6.4725282-3.2435088 9.1335907-8.7635614.4831836 6.6094808 1.4985797 10.9976325 3.5606366 12.3511001 2.5495039 1.6755533 5.0897705 1.1821606 6.9251576.2102406 2.4471827-.7822081 4.5596897-4.1821584 6.3396527-10.1807384 2.0464245 7.5884797 6.7006193 8.8562938 12.1684099 4.2550701 3.0785651-3.4146416 6.9777393-7.7215612 7.6151153-10.8751692-.3162011 5.0450648-.5684513 9.8621921-.7468029 14.4202351.709143 1.197026 1.8630993 1.114204 3.4597363-.249174.858362-16.470965 5.105403-26.5299479 12.740414-30.1734092-1.539082 15.3850763-1.207248 24.0502423-.799384 26.5221613.513737 3.1111351 2.220512 4.4589397 3.816439 4.2366652 4.487923-.6307216 6.632405-6.685932 8.106115-12.7652103.65852 6.7034982 3.454699 11.0461062 5.766228 11.6573772 2.366178.62789 4.556847-.1380367 6.569165-2.2949488 1.02108-1.0950913 1.892943-2.2687572 2.617007-3.5167507.156324.9768752.345334 1.9134012.57911 2.7869258.59261 2.2269923 2.602086 4.1042916 5.725725 4.1326068 0 0 6.833495 1.0476632 10.014691-7.6182107 0 0 1.393416-3.099809 2.411654-6.140864-.287778 4.68263-.518001 9.1649298-.683563 13.4228314.707722 1.197026 1.862389 1.114204 3.459737-.249174.857651-16.470965 5.103982-26.5299479 12.738282-30.1734092-1.539082 15.3850763-1.207248 24.0502423-.797963 26.5221613.513738 3.1111351 2.219091 4.4589397 3.81715 4.2366652 3.126482-.4403017 5.112509-3.5174586 6.529373-7.3952283.206064 1.3329391.482473 2.6984407.839887 4.0957969.256514 1.0066062 1.287542 2.8124095 1.907865 3.5896624 4.090007 5.1193923 9.068218.2640395 13.538377-12.9782824.885363 5.4251967 1.57504 9.4961134 6.657275 10.9346312s10.295033-8.7352462 10.827937-12.0056545c.532905-3.2704082.399679-6.6211011-1.59771-8.8619568-1.419707 8.8754066-3.235547 13.6815163-6.134648 14.8778344zm-181.263838-49.36436c-.9699199-3.5868308-.9784467-7.2593152-.0248697-11.0181611.953577-3.7581379 1.6897214-4.75695739 2.2084331-2.99858205.5187118 1.76616205-.2089058 6.43534225-2.1835634 14.01674315zm16.4040824 1.9898523s-9.0617162 5.191493-12.940793 2.3961757c1.4069168-6.7241575 2.5163951-10.1259474 2.7548569-13.8879089s-.6077198-6.21094409-1.5753206-7.27276495c-.9676007-1.06182085-2.8995786-1.36963479-6.0267711 1.30403012-3.1300348 2.67295703-4.6947456 10.15171493-1.1236352 21.08410863-5.3199933 29.3189975-12.3709207 51.2073725-15.0817227 48.04527-2.71009136-3.1599788-5.29938687-15.5677094-3.31833421-45.1741064 0 0 2.00445581-26.00076703 2.40413421-29.33416597.3996784-3.33339895-5.71732384-2.09588976-6.061789-.30303627-.34446517 1.79285349-4.1706297 38.25832874-4.1706297 51.85898914 0 18.7768764 4.26622675 28.9792147 7.77783444 30.9768537 3.51231826 1.9969311 5.23466496 1.39633 6.77451796.8268045 8.6696141-3.2065184 16.6570432-52.6118076 16.6570432-52.6118076 3.0037267 2.0558725 7.8063071 1.0245213 13.4808217-1.7909378 1.0592125-2.4938633.4497871-6.1175039.4497871-6.1175039z"/></g></svg>

<?xml version="1.0" encoding="UTF-8" standalone="no"?>
<svg width="219px" height="88px" viewBox="0 0 219 88" version="1.1" xmlns="http://www.w3.org/2000/svg" xmlns:xlink="http://www.w3.org/1999/xlink" xmlns:sketch="http://www.bohemiancoding.com/sketch/ns">
    <title>valentina_logo</title>
    <defs></defs>
    <g id="valLogo-svg">
        <path class="valLogo" d="M143.901306,32.530055 C144.099553,32.6128771 144.470468,32.6383608 145.011918,32.6057983 C145.554078,32.5732358 145.98468,32.4790876 146.300881,32.3268933 C146.618503,32.1775305 147.189086,31.8639394 147.412203,31.1157097 C147.753274,29.9746062 147.722009,28.4823939 147.722009,28.4823939 C147.781697,25.4151474 146.117555,23.4904202 142.944887,24.4354407 C142.717506,24.5663986 142.505048,24.7398294 142.312485,24.9507778 C141.923806,25.3726746 141.73906,26.7282659 141.762508,29.0182595 C141.998416,30.2641293 142.365067,31.1397776 142.858909,31.6452043 C143.35204,32.1513389 143.698795,32.4458173 143.901306,32.530055 Z M200.069265,55.8398543 C199.86107,63.1841152 198.469075,68.8407889 195.896122,72.80492 C193.320327,76.7697591 191.204978,77.6390365 189.547943,75.4120442 C187.890907,73.1864677 188.075654,68.1399871 190.102893,60.2641079 C192.130843,52.3910602 194.551024,47.9243338 197.361305,46.8667602 C199.370781,45.5033822 200.274618,48.4941776 200.069265,55.8398543 Z M64.8794746,56.381383 C66.1229617,50.3736006 67.4460321,43.8823357 68.8515278,36.9125437 C70.256313,29.9434594 71.4195064,23.65748 74.7776323,21.9932528 C77.513304,20.6376615 78.5350951,24.5182628 77.0848338,29.8188725 C75.6352831,35.1194822 71.5665932,43.9743602 64.8794746,56.381383 Z M41.8877526,72.80492 C38.9042924,77.6857393 37.1973191,77.6390365 35.5402837,75.4120442 C33.8832482,73.1864677 34.0687055,68.1399871 36.0959448,60.2641079 C38.121763,52.3910602 40.5419442,47.9243338 43.3522252,46.8667602 C46.1625061,45.8091866 46.266959,48.4941776 46.0601849,55.8398543 C46.0601849,55.8398543 44.8712128,67.9241008 41.8877526,72.80492 Z M83.8764053,58.5106877 C83.8764053,50.4988954 86.3463261,44.1952189 91.2890098,39.6060292 C94.2470881,46.3386813 91.7771673,52.6395263 83.8764053,58.5106877 Z M209.99976,72.3033412 C207.100658,73.4996594 204.373862,69.8898679 204.727013,63.0170554 C204.727013,63.0170554 204.957235,47.709846 206.503423,41.6907375 C207.138667,39.2174028 205.362257,37.4922978 202.288357,36.768136 C201.605505,38.7431228 201.191956,41.1216015 201.04487,43.90428 C198.499629,38.256101 195.082526,38.3601594 190.792851,44.2178711 C187.488017,48.7256546 184.063099,56.5781738 183.493226,66.8693415 C180.237422,75.1713648 177.754711,76.6586219 177.318424,73.6246457 C176.749973,69.65202 179.163049,53.7119653 179.163049,53.7119653 C180.316294,46.0604843 180.36106,42.0262729 179.296635,41.6086233 C177.48967,39.0220277 172.178204,43.0562391 163.361525,53.7119653 C163.361525,53.7119653 165.440862,40.6237406 165.440862,37.4632747 C165.440862,34.6742253 160.711334,36.2966876 160.444882,38.0394895 C160.212051,39.5623817 159.456264,49.5305148 159.258728,56.6199387 C155.760621,68.7409777 152.14456,75.022002 146.953179,74.0338007 C144.741193,73.6119039 144.457678,69.7036953 144.131529,66.0021878 C144.014996,62.5222469 146.871464,35.3481276 146.871464,35.3481276 C146.871464,35.3481276 143.391937,34.3847021 142.920017,36.0998968 C142.448097,37.8150914 140.745691,50.0798301 139.600262,64.4745815 C138.658054,67.8150699 137.577286,70.6465922 136.350142,72.9500356 C134.843035,75.7907603 132.986331,74.6850508 131.96454,71.8160109 C129.245922,64.1765638 131.4931,39.8418919 131.592579,39.3102736 C135.56179,39.3343415 139.605946,38.510938 139.605946,38.510938 C140.166581,36.768136 140.261086,34.3847021 140.261086,34.3847021 C135.676014,34.7808772 131.592579,34.7808772 131.592579,34.7808772 C131.920149,24.8783359 131.785478,21.3526096 131.96454,19.438594 C127.871093,18.4460632 127.028362,18.7825983 126.829064,21.0080906 C126.457372,26.8534791 126.00305,32.960097 125.865791,34.2281792 C125.805291,34.5741614 125.43602,34.7808772 124.856057,34.7808772 C124.276094,34.7808772 119.889214,34.0746504 117.000061,33.4701204 C117.000061,33.4701204 115.40592,36.768136 117.804422,37.4632747 C119.617768,37.9888224 121.892778,38.510938 125.43602,39.138828 L124.856057,47.7848813 C124.646441,53.0699176 124.854636,57.4106413 124.854636,62.2129031 C121.127727,73.8674488 117.421425,76.0576313 117.141463,72.0333302 C116.863632,68.0288498 118.839,53.7119653 118.839,53.7119653 C119.993667,46.0604843 120.037722,42.0262729 118.971876,41.6086233 C117.166333,39.0220277 111.854866,43.0562391 103.038187,53.7119653 C103.038187,53.7119653 104.781911,44.3934255 104.946051,41.2334466 C105.245199,35.5314687 101.029422,34.2473733 99.998394,37.414431 C99.486077,38.9880495 99.105215,50.3488247 98.914073,57.4106413 C96.108766,65.438007 95.7613002,67.784631 89.1139732,72.8679214 C85.8915651,75.3320537 84.1428669,73.3952924 83.7875848,64.0201222 C92.4995548,56.4087227 96.2302557,49.7496904 95.8302081,46.2570077 C95.2973036,42.090259 94.7519901,39.6481579 94.1011134,38.28478 C93.1247984,36.1986559 91.4119374,35.33397 89.6909512,35.9753098 C84.5699159,37.8837558 80.8110319,44.3509527 78.683603,55.0880852 L78.1421532,62.3268719 C75.3759272,70.997701 73.1070961,75.6314872 71.337081,76.2055783 C69.2807085,76.8716939 67.6314893,74.2036921 66.3887127,68.193786 L66.4775332,64.4377717 C67.3650278,60.903324 69.1030675,57.1133315 71.692363,53.0656704 C74.280948,49.0158856 76.649258,44.0090464 78.794451,38.0394895 C80.939644,32.0727642 81.7752673,27.3717293 81.3020317,23.9342613 C80.828796,20.4989169 79.0303583,18.6683377 75.9088503,18.4460632 C72.7873423,18.2244966 70.2648398,20.1294032 68.4308739,24.2053795 C66.7184144,28.0102376 66.0668272,29.839401 65.0578262,33.7617672 C63.7496777,38.8457655 62.6006956,44.2383997 62.1281705,50.0798301 C61.7821258,53.4634992 61.6314862,56.8054034 61.6492503,60.1097899 C60.2387806,67.3160141 58.2399638,71.4634864 55.6471155,72.5338018 C53.0542672,73.6041172 51.2952172,70.4859604 50.7207747,63.605834 C50.3334842,58.967237 50.4000973,52.1662149 50.7207747,49.6661657 C51.0414521,47.1661165 51.4873754,43.015182 52.1986501,41.2334466 C52.464401,38.6758741 51.1893673,38.0607259 48.4683184,37.414431 C47.787598,39.3894178 47.3358963,41.6907375 47.0372105,43.90428 C44.2050822,39.138828 35.8975862,45.0262673 32.700159,54.2874688 C29.5027319,63.5486703 27.6850419,77.9242976 32.700159,80.3367693 C37.7152762,82.749241 41.7690884,80.6008088 46.2371154,67.3584869 C47.1253205,72.7836836 49.0360273,77.5356859 52.8951008,78.2931181 C56.2887549,78.9564022 59.367629,75.0496093 62.0286915,69.5295567 C62.5118751,76.1390375 63.5272712,80.5271892 65.5893281,81.8806568 C68.138832,83.5562101 70.6790986,83.0628174 72.5144857,82.0908974 C74.9616684,81.3086893 77.0741754,77.908739 78.8541384,71.910159 C80.9005629,79.4986387 85.5547577,80.7664528 91.0225483,76.1652291 C94.1011134,72.7505875 98.0002876,68.4436679 98.6376636,65.2900599 C98.3214625,70.3351247 98.0692123,75.152252 97.8908607,79.710295 C98.6000037,80.907321 99.75396,80.824499 101.350597,79.461121 C102.208959,62.990156 106.456,52.9311731 114.091011,49.2877118 C112.551929,64.6727881 112.883763,73.3379541 113.291627,75.8098731 C113.805364,78.9210082 115.512139,80.2688128 117.108066,80.0465383 C121.595989,79.4158167 123.740471,73.3606063 125.214181,67.281328 C125.872701,73.9848262 128.66888,78.3274342 130.980409,78.9387052 C133.346587,79.5665952 135.537256,78.8006685 137.549574,76.6437564 C138.570654,75.5486651 139.442517,74.3749992 140.166581,73.1270057 C140.322905,74.1038809 140.511915,75.0404069 140.745691,75.9139315 C141.338301,78.1409238 143.347777,80.0182231 146.471416,80.0465383 C146.471416,80.0465383 153.304911,81.0942015 156.486107,72.4283276 C156.486107,72.4283276 157.879523,69.3285186 158.897761,66.2874636 C158.609983,70.9700936 158.37976,75.4523934 158.214198,79.710295 C158.92192,80.907321 160.076587,80.824499 161.673935,79.461121 C162.531586,62.990156 166.777917,52.9311731 174.412217,49.2877118 C172.873135,64.6727881 173.204969,73.3379541 173.614254,75.8098731 C174.127992,78.9210082 175.833345,80.2688128 177.431404,80.0465383 C180.557886,79.6062366 182.543913,76.5290797 183.960777,72.65131 C184.166841,73.9842491 184.44325,75.3497507 184.800664,76.7471069 C185.057178,77.7537131 186.088206,79.5595164 186.708529,80.3367693 C190.798536,85.4561616 195.776747,80.6008088 200.246906,67.3584869 C201.132269,72.7836836 201.821946,76.8546003 206.904181,78.2931181 C211.986416,79.7316359 217.199214,69.5578719 217.732118,66.2874636 C218.265023,63.0170554 218.131797,59.6663625 216.134408,57.4255068 C214.714701,66.3009134 212.898861,71.1070231 209.99976,72.3033412 Z M28.735922,22.9389812 C27.7660021,19.3521504 27.7574753,15.679666 28.7110523,11.9208201 C29.6646293,8.1626822 30.4007737,7.16386271 30.9194854,8.92223805 C31.4381972,10.6884001 30.7105796,15.3575803 28.735922,22.9389812 Z M45.1400044,24.9288335 C45.1400044,24.9288335 36.0782882,30.1203265 32.1992114,27.3250092 C33.6061282,20.6008517 34.7156065,17.1990618 34.9540683,13.4371003 C35.1925301,9.6751388 34.3463485,7.22615621 33.3787477,6.16433535 C32.411147,5.1025145 30.4791691,4.79470056 27.3519766,7.46836547 C24.2219418,10.1413225 22.657231,17.6200804 26.2283414,28.5524741 C20.9083481,57.8714716 13.8574207,79.7598466 11.1466187,76.5977441 C8.43652734,73.4377653 5.84723183,61.0300347 7.82828449,31.4236377 C7.82828449,31.4236377 9.8327403,5.42287067 10.2324187,2.08947173 C10.6320971,-1.24392722 4.51509486,-0.006418033 4.1706297,1.78643546 C3.82616453,3.57928895 0,40.0447642 0,53.6454246 C0,72.422301 4.26622675,82.6246393 7.77783444,84.6222783 C11.2901527,86.6192094 13.0124994,86.0186083 14.5523524,85.4490828 C23.2219665,82.2425644 31.2093956,32.8372752 31.2093956,32.8372752 C34.2131223,34.8931477 39.0157027,33.8617965 44.6902173,31.0463374 C45.7494298,28.5524741 45.1400044,24.9288335 45.1400044,24.9288335 Z"></path>
        <path class="valBird" d="M203.145108,17.2269466 C203.145108,17.2269466 199.395553,13.8315436 198.091452,25.4736334 C198.091452,25.4736334 206.893236,19.8143924 203.145108,17.2269466 Z M198.091452,25.4736334 C202.328529,31.2964485 204.939584,28.2232371 204.939584,28.2232371 C205.752595,24.5042263 198.091452,25.4736334 198.091452,25.4736334 Z M193.852235,18.0356119 C193.852235,18.0356119 191.570238,19.9758422 198.091452,25.4736334 C198.091452,25.4736334 197.276301,16.0946735 193.852235,18.0356119 Z M181.789843,29.8405677 C175.920322,25.6364994 179.181643,21.1074071 179.181643,21.1074071 C182.931913,27.0923802 191.897155,28.2232371 191.897155,28.2232371 C188.147599,33.3988367 181.789843,29.8405677 181.789843,29.8405677 Z M169.156418,15.828423 C168.525425,15.828423 168.20279,15.4056793 168.20279,14.8816756 C168.20279,14.359088 168.631066,13.9370525 169.156418,13.9370525 C169.685339,13.9370525 170.110045,14.359088 170.110045,14.8816756 C170.110045,15.4056793 169.788839,15.828423 169.156418,15.828423 Z M171.519787,12.0513469 C171.519787,12.0513469 165.324776,12.5371126 165,18.3592197 C165,18.3592197 166.631017,16.5804392 167.119252,18.5213776 C167.119252,18.5213776 165.97861,26.9302223 169.238504,31.4586064 C169.238504,31.4586064 172.990201,37.4124225 180.668474,38.1120384 C179.539967,39.5735842 177.424284,41.0542489 177.424284,41.0542489 L175.357835,41.9939152 L176.213691,42.1419109 L173.582649,43.8555449 L177.186591,42.4612699 L176.538467,44 L178.362922,42.1893545 L179.251595,43.1239064 L179.251595,41.3615701 C180.71844,40.304357 181.760578,39.1494243 182.476512,38.1743524 C183.779899,38.1495684 185.180361,37.9753726 186.680754,37.602905 C186.680754,37.602905 196.786638,34.2067939 198.091452,25.4736334 C198.091452,25.4736334 187.007672,30.0020175 179.997509,17.0647887 C179.997509,17.0647887 178.20446,11.4055477 171.519787,12.0513469 Z"></path>
    </g>
</svg>
